X: 4837
T: Boys On The Hilltop, The
R: reel
M: 4/4
K: Adorian
~A2Ac B2AG|EGGF ~G2AG|EA~A2 BGBd|egdB BAGB|
~A2Ac BGAG|EGGF ~G2AB|c2cA ~B2Be|dBGA BAAG||
~A2 (3Bcd egdB|GB~B2 defg|ag (3fed (3ege dB|GBdB BAAg|
ag (3fed (3ege dB|GB~B2 defg|af (3gfe fdef|~g2ga gedB||

